;FLAVOR:Marlin
;TIME:4348
;Filament used: 2.93841m
;Layer height: 0.2
;MINX:58.888
;MINY:57.614
;MINZ:0.2
;MAXX:176.112
;MAXY:177.386
;MAXZ:2
;Generated with Cura_SteamEngine 4.7.1
M140 S60
M105
M190 S60
M104 S205
M105
M109 S205
M82 ;absolute extrusion mode
; Ender 3 Custom Start G-code
G92 E0 ; Reset Extruder
G28 ; Home all axes
G1 Z2.0 F3000 ; Move Z Axis up little to prevent scratching of Heat Bed
G1 X0.1 Y20 Z0.3 F5000.0 ; Move to start position
G1 X0.1 Y200.0 Z0.3 F1500.0 E15 ; Draw the first line
G1 X0.4 Y200.0 Z0.3 F5000.0 ; Move to side a little
G1 X0.4 Y20 Z0.3 F1500.0 E30 ; Draw the second line
G92 E0 ; Reset Extruder
G1 Z2.0 F3000 ; Move Z Axis up little to prevent scratching of Heat Bed
G1 X5 Y20 Z0.3 F5000.0 ; Move over to prevent blob squish
G92 E0
G92 E0
G1 F1500 E-6
;LAYER_COUNT:9
;LAYER:0
M107
M204 S500
M205 X20 Y20
G1 F300 Z0.4
G0 F7500 X64.08 Y71.847 Z0.4
;TYPE:SKIRT
G1 F300 Z0.2
G1 F1500 E0
G1 X64.915 Y71.132 E0.03656
G1 X65.307 Y70.829 E0.05304
G1 X66.177 Y70.221 E0.08834
G1 X66.603 Y69.953 E0.10508
G1 X67.55 Y69.421 E0.14121
G1 X67.973 Y69.21 E0.15693
G1 X68.946 Y68.782 E0.19229
G1 X69.52 Y68.562 E0.21273
G1 X70.178 Y68.333 E0.23591
G1 X70.461 Y68.245 E0.24576
G1 X72.981 Y67.418 E0.33398
G1 X75.317 Y66.579 E0.41653
G1 X77.643 Y65.667 E0.49963
G1 X79.981 Y64.673 E0.58413
G1 X82.262 Y63.627 E0.66759
G1 X84.523 Y62.513 E0.75142
G1 X86.788 Y61.314 E0.83666
G1 X88.642 Y60.27 E0.90743
G1 X89.489 Y59.779 E0.93999
G1 X90.103 Y59.449 E0.96318
G1 X90.589 Y59.207 E0.98123
G1 X91.572 Y58.776 E1.01693
G1 X92.154 Y58.554 E1.03765
G1 X93.328 Y58.18 E1.07863
G1 X93.615 Y58.106 E1.08849
G1 X94.553 Y57.908 E1.12038
G1 X95.099 Y57.817 E1.13879
G1 X96.136 Y57.694 E1.17352
G1 X96.762 Y57.65 E1.19439
G1 X97.133 Y57.63 E1.20675
G1 X97.298 Y57.624 E1.21224
G1 X97.597 Y57.617 E1.22219
G1 X98.025 Y57.614 E1.23642
G1 X136.978 Y57.616 E2.53201
G1 X137.811 Y57.628 E2.55971
G1 X138.335 Y57.648 E2.57715
G1 X138.496 Y57.658 E2.58252
G1 X139.176 Y57.722 E2.60524
G1 X139.729 Y57.791 E2.62377
G1 X140.848 Y57.99 E2.66157
G1 X141.444 Y58.128 E2.68192
G1 X142.586 Y58.458 E2.72146
G1 X142.887 Y58.563 E2.73206
G1 X143.775 Y58.917 E2.76386
G1 X144.262 Y59.136 E2.78162
G1 X145.209 Y59.617 E2.81694
G1 X146.783 Y60.517 E2.87725
G1 X148.998 Y61.741 E2.96142
G1 X151.226 Y62.892 E3.04483
G1 X153.519 Y63.994 E3.12945
G1 X155.783 Y65.004 E3.2119
G1 X158.148 Y65.982 E3.29702
G1 X160.416 Y66.847 E3.37775
G1 X162.844 Y67.693 E3.46327
G1 X163.512 Y67.903 E3.48656
G1 X163.623 Y67.943 E3.49049
G1 X163.624 Y67.941 E3.49056
G1 X165.129 Y68.433 E3.54322
G1 X165.55 Y68.58 E3.55805
G1 X165.695 Y68.634 E3.5632
G1 X166.348 Y68.901 E3.58667
G1 X166.871 Y69.135 E3.60572
G1 X167.842 Y69.628 E3.64194
G1 X168.244 Y69.858 E3.65735
G1 X169.152 Y70.438 E3.69318
G1 X169.556 Y70.725 E3.70966
G1 X170.406 Y71.395 E3.74566
G1 X170.791 Y71.73 E3.76264
G1 X171.57 Y72.478 E3.79856
G1 X171.905 Y72.833 E3.81479
G1 X172.594 Y73.638 E3.85003
G1 X172.948 Y74.094 E3.86923
G1 X173.628 Y75.076 E3.90896
G1 X173.791 Y75.341 E3.91931
G1 X174.265 Y76.193 E3.95174
G1 X174.509 Y76.682 E3.96991
G1 X174.943 Y77.67 E4.00581
G1 X175.127 Y78.152 E4.02297
G1 X175.462 Y79.181 E4.05896
G1 X175.591 Y79.654 E4.07526
G1 X175.824 Y80.706 E4.1111
G1 X175.904 Y81.177 E4.12699
G1 X176.032 Y82.244 E4.16274
G1 X176.075 Y82.853 E4.18304
G1 X176.094 Y83.208 E4.19487
G1 X176.101 Y83.391 E4.20096
G1 X176.109 Y83.71 E4.21157
G1 X176.112 Y84.038 E4.22248
G1 X176.112 Y157.184 E6.65533
G1 X176.11 Y160.885 E6.77842
G1 X176.099 Y161.685 E6.80503
G1 X176.076 Y162.261 E6.8242
G1 X176.065 Y162.427 E6.82974
G1 X176.004 Y163.062 E6.85096
G1 X175.935 Y163.615 E6.86949
G1 X175.733 Y164.748 E6.90777
G1 X175.621 Y165.229 E6.92419
G1 X175.348 Y166.199 E6.95771
G1 X175.196 Y166.657 E6.97376
G1 X174.799 Y167.68 E7.01026
G1 X174.593 Y168.141 E7.02705
G1 X174.101 Y169.111 E7.06323
G1 X173.813 Y169.615 E7.08253
G1 X173.174 Y170.605 E7.12173
G1 X172.983 Y170.869 E7.13256
G1 X172.341 Y171.675 E7.16684
G1 X171.984 Y172.082 E7.18484
G1 X171.276 Y172.816 E7.21876
G1 X170.92 Y173.153 E7.23507
G1 X170.09 Y173.865 E7.27144
G1 X169.701 Y174.166 E7.2878
G1 X168.822 Y174.779 E7.32344
G1 X168.394 Y175.048 E7.34025
G1 X167.46 Y175.574 E7.37591
G1 X167.036 Y175.786 E7.39167
G1 X166.046 Y176.222 E7.42765
G1 X165.468 Y176.443 E7.44823
G1 X164.298 Y176.816 E7.48908
G1 X164.024 Y176.887 E7.49849
G1 X163.076 Y177.089 E7.53073
G1 X162.507 Y177.184 E7.54992
G1 X161.461 Y177.307 E7.58495
G1 X160.844 Y177.35 E7.60552
G1 X160.479 Y177.37 E7.61768
G1 X160.314 Y177.376 E7.62317
G1 X160.015 Y177.383 E7.63312
G1 X159.688 Y177.386 E7.64399
G1 X79.493 Y177.386 E10.31129
G1 X75.39 Y177.384 E10.44775
G1 X74.588 Y177.373 E10.47443
G1 X74.012 Y177.35 E10.4936
G1 X73.846 Y177.339 E10.49914
G1 X73.201 Y177.277 E10.52069
G1 X72.644 Y177.207 E10.53936
G1 X71.537 Y177.01 E10.57676
G1 X70.949 Y176.874 E10.59683
G1 X69.807 Y176.544 E10.63637
G1 X69.523 Y176.445 E10.64637
G1 X68.65 Y176.098 E10.67762
G1 X68.125 Y175.863 E10.69675
G1 X67.154 Y175.369 E10.73298
G1 X66.754 Y175.14 E10.74831
G1 X65.844 Y174.559 E10.78422
G1 X65.439 Y174.271 E10.80075
G1 X64.595 Y173.606 E10.83649
G1 X64.211 Y173.272 E10.85342
G1 X63.43 Y172.522 E10.88943
G1 X63.094 Y172.166 E10.90571
G1 X62.404 Y171.36 E10.941
G1 X62.047 Y170.9 E10.96037
G1 X61.352 Y169.893 E11.00107
G1 X61.19 Y169.628 E11.0114
G1 X60.728 Y168.794 E11.04311
G1 X60.486 Y168.308 E11.06116
G1 X60.055 Y167.324 E11.09689
G1 X59.872 Y166.844 E11.11398
G1 X59.538 Y165.819 E11.14984
G1 X59.409 Y165.346 E11.16614
G1 X59.175 Y164.286 E11.20225
G1 X59.095 Y163.813 E11.2182
G1 X58.968 Y162.75 E11.25381
G1 X58.924 Y162.124 E11.27468
G1 X58.904 Y161.755 E11.28697
G1 X58.898 Y161.591 E11.29243
G1 X58.891 Y161.28 E11.30278
G1 X58.888 Y160.919 E11.31478
G1 X58.888 Y87.816 E13.7462
G1 X58.89 Y84.115 E13.8693
G1 X58.901 Y83.315 E13.89591
G1 X58.924 Y82.739 E13.91508
G1 X58.935 Y82.573 E13.92061
G1 X58.996 Y81.938 E13.94183
G1 X59.065 Y81.385 E13.96037
G1 X59.267 Y80.252 E13.99864
G1 X59.379 Y79.771 E14.01507
G1 X59.652 Y78.801 E14.04859
G1 X59.804 Y78.343 E14.06464
G1 X60.201 Y77.32 E14.10113
G1 X60.407 Y76.859 E14.11793
G1 X60.902 Y75.885 E14.15427
G1 X61.192 Y75.378 E14.17369
G1 X61.831 Y74.388 E14.21288
G1 X62.02 Y74.127 E14.2236
G1 X62.659 Y73.325 E14.25771
G1 X63.016 Y72.918 E14.27571
G1 X63.509 Y72.407 E14.29933
G0 F1350 X63.724 Y72.184
G0 X64.08 Y71.847
G0 F7500 X64.355 Y72.137
G1 F1500 X65.159 Y71.448 E14.33455
G1 X65.551 Y71.145 E14.35103
G1 X66.39 Y70.56 E14.38505
G1 X66.816 Y70.292 E14.40178
G1 X67.729 Y69.779 E14.43662
G1 X68.152 Y69.568 E14.45234
G1 X69.089 Y69.155 E14.4864
G1 X69.663 Y68.935 E14.50684
G1 X70.297 Y68.715 E14.52916
G1 X70.642 Y68.607 E14.54119
G1 X73.062 Y67.814 E14.62589
G1 X75.461 Y66.951 E14.71068
G1 X77.796 Y66.036 E14.7941
G1 X80.168 Y65.028 E14.87982
G1 X82.427 Y63.992 E14.96248
G1 X84.708 Y62.868 E15.04705
G1 X86.947 Y61.682 E15.13133
G1 X88.885 Y60.592 E15.20528
G1 X89.69 Y60.125 E15.23623
G1 X90.281 Y59.807 E15.25855
G1 X90.767 Y59.565 E15.27661
G1 X91.714 Y59.15 E15.311
G1 X92.296 Y58.928 E15.33172
G1 X93.427 Y58.568 E15.3712
G1 X93.714 Y58.494 E15.38105
G1 X94.618 Y58.302 E15.41179
G1 X95.164 Y58.211 E15.4302
G1 X96.164 Y58.093 E15.46369
G1 X96.79 Y58.049 E15.48457
G1 X97.148 Y58.03 E15.49649
G1 X97.313 Y58.024 E15.50198
G1 X97.601 Y58.017 E15.51156
G1 X98.025 Y58.014 E15.52566
G1 X136.973 Y58.016 E16.82108
G1 X137.806 Y58.028 E16.84879
G1 X138.31 Y58.047 E16.86556
G1 X138.471 Y58.057 E16.87093
G1 X139.126 Y58.119 E16.89281
G1 X139.679 Y58.188 E16.91135
G1 X140.758 Y58.379 E16.94779
G1 X141.354 Y58.517 E16.96814
G1 X142.454 Y58.835 E17.00623
G1 X142.755 Y58.94 E17.01683
G1 X143.611 Y59.282 E17.04749
G1 X144.098 Y59.501 E17.06525
G1 X145.01 Y59.965 E17.09928
G1 X146.514 Y60.824 E17.15689
G1 X148.815 Y62.096 E17.24433
G1 X151.034 Y63.242 E17.3274
G1 X153.361 Y64.362 E17.41329
G1 X155.646 Y65.381 E17.49651
G1 X157.97 Y66.342 E17.58015
G1 X160.297 Y67.229 E17.66298
G1 X162.729 Y68.076 E17.74864
G1 X163.392 Y68.285 E17.77176
G1 X163.499 Y68.324 E17.77554
G1 X163.5 Y68.321 E17.77565
G1 X165.005 Y68.813 E17.82831
G1 X165.41 Y68.954 E17.84258
G1 X165.555 Y69.008 E17.84772
G1 X166.185 Y69.266 E17.87037
G1 X166.708 Y69.5 E17.88942
G1 X167.643 Y69.975 E17.9243
G1 X168.045 Y70.205 E17.93971
G1 X168.92 Y70.765 E17.97426
G1 X169.324 Y71.052 E17.99074
G1 X170.143 Y71.696 E18.0254
G1 X170.528 Y72.031 E18.04237
G1 X171.279 Y72.753 E18.07702
G1 X171.614 Y73.108 E18.09325
G1 X172.278 Y73.883 E18.1272
G1 X172.632 Y74.339 E18.1464
G1 X173.288 Y75.285 E18.18469
G1 X173.451 Y75.55 E18.19503
G1 X173.907 Y76.371 E18.22627
G1 X174.151 Y76.86 E18.24445
G1 X174.569 Y77.813 E18.27906
G1 X174.753 Y78.295 E18.29622
G1 X175.076 Y79.286 E18.33089
G1 X175.205 Y79.759 E18.34719
G1 X175.429 Y80.773 E18.38173
G1 X175.509 Y81.244 E18.39762
G1 X175.633 Y82.272 E18.43206
G1 X175.676 Y82.881 E18.45237
G1 X175.694 Y83.223 E18.46376
G1 X175.701 Y83.406 E18.46985
G1 X175.709 Y83.714 E18.4801
G1 X175.712 Y84.042 E18.49101
G1 X175.712 Y157.184 E20.92372
G1 X175.71 Y160.88 E21.04665
G1 X175.699 Y161.68 E21.07326
G1 X175.677 Y162.235 E21.09173
G1 X175.666 Y162.401 E21.09727
G1 X175.607 Y163.012 E21.11768
G1 X175.538 Y163.565 E21.13622
G1 X175.344 Y164.657 E21.17311
G1 X175.232 Y165.138 E21.18953
G1 X174.968 Y166.073 E21.22185
G1 X174.816 Y166.531 E21.2379
G1 X174.434 Y167.517 E21.27307
G1 X174.228 Y167.978 E21.28986
G1 X173.753 Y168.912 E21.32471
G1 X173.465 Y169.416 E21.34402
G1 X172.85 Y170.37 E21.38177
G1 X172.659 Y170.634 E21.39261
G1 X172.04 Y171.411 E21.42565
G1 X171.683 Y171.818 E21.44366
G1 X171.001 Y172.526 E21.47635
G1 X170.645 Y172.863 E21.49266
G1 X169.845 Y173.548 E21.52769
G1 X169.456 Y173.849 E21.54405
G1 X168.61 Y174.441 E21.57839
G1 X168.182 Y174.71 E21.5952
G1 X167.281 Y175.216 E21.62957
G1 X166.857 Y175.428 E21.64534
G1 X165.903 Y175.848 E21.68001
G1 X165.325 Y176.069 E21.70059
G1 X164.198 Y176.429 E21.73994
G1 X163.924 Y176.5 E21.74935
G1 X163.011 Y176.694 E21.7804
G1 X162.442 Y176.789 E21.79959
G1 X161.433 Y176.908 E21.83338
G1 X160.816 Y176.951 E21.85395
G1 X160.464 Y176.97 E21.86567
G1 X160.299 Y176.976 E21.87117
G1 X160.011 Y176.983 E21.88075
G1 X159.684 Y176.986 E21.89162
G1 X79.493 Y176.986 E24.55879
G1 X75.396 Y176.984 E24.69505
G1 X74.594 Y176.973 E24.72173
G1 X74.038 Y176.951 E24.74024
G1 X73.872 Y176.94 E24.74577
G1 X73.251 Y176.88 E24.76652
G1 X72.694 Y176.81 E24.78519
G1 X71.627 Y176.62 E24.82124
G1 X71.039 Y176.484 E24.84131
G1 X69.939 Y176.166 E24.8794
G1 X69.655 Y176.067 E24.8894
G1 X68.813 Y175.733 E24.91953
G1 X68.288 Y175.498 E24.93866
G1 X67.352 Y175.022 E24.97359
G1 X66.952 Y174.793 E24.98892
G1 X66.076 Y174.233 E25.0235
G1 X65.671 Y173.945 E25.04003
G1 X64.857 Y173.304 E25.07449
G1 X64.473 Y172.97 E25.09141
G1 X63.721 Y172.248 E25.12609
G1 X63.385 Y171.892 E25.14237
G1 X62.72 Y171.115 E25.17638
G1 X62.363 Y170.655 E25.19575
G1 X61.693 Y169.685 E25.23496
G1 X61.531 Y169.42 E25.24529
G1 X61.086 Y168.616 E25.27586
G1 X60.844 Y168.13 E25.29391
G1 X60.428 Y167.181 E25.32838
G1 X60.245 Y166.701 E25.34546
G1 X59.924 Y165.714 E25.37998
G1 X59.795 Y165.241 E25.39629
G1 X59.569 Y164.22 E25.43107
G1 X59.489 Y163.747 E25.44702
G1 X59.367 Y162.722 E25.48136
G1 X59.323 Y162.096 E25.50223
G1 X59.304 Y161.741 E25.51405
G1 X59.298 Y161.577 E25.51951
G1 X59.291 Y161.277 E25.52949
G1 X59.288 Y160.916 E25.5415
G1 X59.288 Y87.816 E27.97282
G1 X59.29 Y84.12 E28.09575
G1 X59.301 Y83.32 E28.12236
G1 X59.323 Y82.765 E28.14083
G1 X59.334 Y82.599 E28.14636
G1 X59.393 Y81.988 E28.16678
G1 X59.462 Y81.435 E28.18532
G1 X59.656 Y80.343 E28.2222
G1 X59.768 Y79.862 E28.23863
G1 X60.032 Y78.927 E28.27094
G1 X60.184 Y78.469 E28.28699
G1 X60.566 Y77.483 E28.32216
G1 X60.772 Y77.022 E28.33896
G1 X61.249 Y76.084 E28.37396
G1 X61.539 Y75.577 E28.39338
G1 X62.155 Y74.623 E28.43115
G1 X62.344 Y74.362 E28.44187
G1 X62.96 Y73.589 E28.47475
G1 X63.317 Y73.182 E28.49275
G1 X63.784 Y72.697 E28.51515
G0 F1350 X63.999 Y72.474
G0 X64.355 Y72.137
G0 F7500 X64.63 Y72.428
G1 F1500 X65.404 Y71.765 E28.54904
G1 X65.796 Y71.462 E28.56552
G1 X66.603 Y70.898 E28.59827
G1 X67.029 Y70.63 E28.61501
G1 X67.907 Y70.137 E28.6485
G1 X68.33 Y69.926 E28.66422
G1 X69.233 Y69.529 E28.69703
G1 X69.807 Y69.309 E28.71748
G1 X70.416 Y69.097 E28.73892
G1 X70.738 Y68.996 E28.75015
G1 X73.184 Y68.194 E28.83576
G1 X75.606 Y67.324 E28.92136
G1 X77.963 Y66.4 E29.00556
G1 X80.313 Y65.401 E29.09049
G1 X82.621 Y64.343 E29.17494
G1 X84.893 Y63.223 E29.25919
G1 X87.136 Y62.035 E29.34361
G1 X89.134 Y60.911 E29.41986
G1 X89.891 Y60.472 E29.44896
G1 X90.459 Y60.165 E29.47044
G1 X90.945 Y59.923 E29.48849
G1 X91.857 Y59.524 E29.5216
G1 X92.439 Y59.302 E29.54232
G1 X93.527 Y58.955 E29.5803
G1 X93.814 Y58.881 E29.59016
G1 X94.684 Y58.697 E29.61974
G1 X95.23 Y58.606 E29.63815
G1 X96.192 Y58.492 E29.67037
G1 X96.818 Y58.448 E29.69124
G1 X97.162 Y58.43 E29.7027
G1 X97.327 Y58.424 E29.70819
G1 X97.604 Y58.417 E29.71741
G1 X98.025 Y58.414 E29.73141
G1 X136.967 Y58.416 E31.02662
G1 X137.8 Y58.428 E31.05433
G1 X138.285 Y58.447 E31.07048
G1 X138.446 Y58.457 E31.07584
G1 X139.077 Y58.515 E31.09692
G1 X139.63 Y58.584 E31.11545
G1 X140.668 Y58.769 E31.15052
G1 X141.264 Y58.907 E31.17087
G1 X142.323 Y59.213 E31.20753
G1 X142.624 Y59.318 E31.21814
G1 X143.447 Y59.646 E31.2476
G1 X143.934 Y59.865 E31.26536
G1 X144.812 Y60.312 E31.29813
G1 X146.358 Y61.195 E31.35735
G1 X148.602 Y62.436 E31.44264
G1 X150.898 Y63.622 E31.52859
G1 X153.161 Y64.71 E31.6121
G1 X155.479 Y65.744 E31.69652
G1 X157.842 Y66.721 E31.78157
G1 X160.171 Y67.609 E31.86447
G1 X162.574 Y68.446 E31.94911
G1 X163.272 Y68.666 E31.97345
G1 X163.374 Y68.703 E31.97706
G1 X163.375 Y68.701 E31.97713
G1 X164.88 Y69.193 E32.02979
G1 X165.271 Y69.329 E32.04356
G1 X165.416 Y69.383 E32.04871
G1 X166.022 Y69.631 E32.07049
G1 X166.545 Y69.865 E32.08954
G1 X167.444 Y70.323 E32.1231
G1 X167.846 Y70.553 E32.13851
G1 X168.688 Y71.091 E32.17174
G1 X169.092 Y71.378 E32.18822
G1 X169.88 Y71.998 E32.22157
G1 X170.265 Y72.333 E32.23854
G1 X170.988 Y73.028 E32.2719
G1 X171.323 Y73.383 E32.28813
G1 X171.962 Y74.128 E32.32078
G1 X172.316 Y74.584 E32.33998
G1 X172.947 Y75.495 E32.37684
G1 X173.11 Y75.76 E32.38719
G1 X173.549 Y76.55 E32.41725
G1 X173.793 Y77.039 E32.43542
G1 X174.195 Y77.955 E32.46869
G1 X174.379 Y78.437 E32.48585
G1 X174.691 Y79.391 E32.51924
G1 X174.82 Y79.864 E32.53554
G1 X175.035 Y80.84 E32.56878
G1 X175.115 Y81.311 E32.58467
G1 X175.234 Y82.301 E32.61784
G1 X175.277 Y82.91 E32.63814
G1 X175.295 Y83.238 E32.64907
G1 X175.302 Y83.421 E32.65516
G1 X175.309 Y83.718 E32.66504
G1 X175.312 Y84.046 E32.67595
G1 X175.312 Y157.184 E35.10853
G1 X175.31 Y160.874 E35.23126
G1 X175.299 Y161.674 E35.25787
G1 X175.278 Y162.208 E35.27565
G1 X175.267 Y162.374 E35.28118
G1 X175.211 Y162.963 E35.30086
G1 X175.142 Y163.516 E35.31939
G1 X174.954 Y164.566 E35.35487
G1 X174.842 Y165.047 E35.3713
G1 X174.589 Y165.947 E35.40239
G1 X174.437 Y166.405 E35.41844
G1 X174.069 Y167.353 E35.45227
G1 X173.863 Y167.814 E35.46906
G1 X173.406 Y168.714 E35.50263
G1 X173.118 Y169.218 E35.52194
G1 X172.526 Y170.136 E35.55827
G1 X172.335 Y170.4 E35.56911
G1 X171.739 Y171.147 E35.60089
G1 X171.382 Y171.554 E35.6189
G1 X170.726 Y172.235 E35.65035
G1 X170.37 Y172.572 E35.66665
G1 X169.6 Y173.232 E35.70038
G1 X169.211 Y173.533 E35.71674
G1 X168.397 Y174.102 E35.74978
G1 X167.969 Y174.371 E35.76659
G1 X167.103 Y174.858 E35.79963
G1 X166.679 Y175.07 E35.8154
G1 X165.76 Y175.474 E35.84879
G1 X165.182 Y175.695 E35.86937
G1 X164.098 Y176.042 E35.90723
G1 X163.824 Y176.113 E35.91664
G1 X162.945 Y176.3 E35.94653
G1 X162.376 Y176.395 E35.96572
G1 X161.405 Y176.509 E35.99824
G1 X160.788 Y176.552 E36.01881
G1 X160.45 Y176.57 E36.03007
G1 X160.285 Y176.576 E36.03556
G1 X160.008 Y176.583 E36.04477
G1 X159.681 Y176.586 E36.05565
G1 X79.493 Y176.586 E38.72271
G1 X75.401 Y176.584 E38.85881
G1 X74.599 Y176.573 E38.88549
G1 X74.065 Y176.552 E38.90327
G1 X73.899 Y176.541 E38.9088
G1 X73.301 Y176.483 E38.92878
G1 X72.744 Y176.413 E38.94745
G1 X71.717 Y176.231 E38.98214
