;FLAVOR:Marlin
;TIME:13469
;Filament used: 9.83252m
;Layer height: 0.2
;MINX:69
;MINY:36.5
;MINZ:0.2
;MAXX:166
;MAXY:198.5
;MAXZ:14
;Generated with Cura_SteamEngine 4.7.1
M140 S60
M105
M190 S60
M104 S205
M105
M109 S205
M82 ;absolute extrusion mode
; Ender 3 Custom Start G-code
G92 E0 ; Reset Extruder
G28 ; Home all axes
G1 Z2.0 F3000 ; Move Z Axis up little to prevent scratching of Heat Bed
G1 X0.1 Y20 Z0.3 F5000.0 ; Move to start position
G1 X0.1 Y200.0 Z0.3 F1500.0 E15 ; Draw the first line
G1 X0.4 Y200.0 Z0.3 F5000.0 ; Move to side a little
G1 X0.4 Y20 Z0.3 F1500.0 E30 ; Draw the second line
G92 E0 ; Reset Extruder
G1 Z2.0 F3000 ; Move Z Axis up little to prevent scratching of Heat Bed
G1 X5 Y20 Z0.3 F5000.0 ; Move over to prevent blob squish
G92 E0
G92 E0
G1 F1500 E-6
;LAYER_COUNT:70
;LAYER:0
M107
M204 S500
M205 X20 Y20
G0 F7500 X71.149 Y43.069 Z0.2
;TYPE:SKIRT
G1 F1500 E0
G1 X71.307 Y42.823 E0.00972
G1 X71.959 Y41.913 E0.04696
G1 X72.163 Y41.657 E0.05785
G1 X72.887 Y40.835 E0.09428
G1 X73.077 Y40.64 E0.10333
G1 X73.716 Y40.035 E0.1326
G1 X73.867 Y39.903 E0.13927
G1 X74.562 Y39.344 E0.16894
G1 X74.793 Y39.173 E0.1785
G1 X75.662 Y38.591 E0.21328
G1 X75.916 Y38.438 E0.22314
G1 X76.895 Y37.914 E0.26008
G1 X77.349 Y37.71 E0.27663
G1 X77.78 Y37.528 E0.29219
G1 X79.019 Y37.09 E0.3359
G1 X79.252 Y37.023 E0.34396
G1 X80.191 Y36.797 E0.37609
G1 X80.484 Y36.74 E0.38602
G1 X81.632 Y36.579 E0.42457
G1 X81.908 Y36.555 E0.43379
G1 X82.332 Y36.526 E0.44792
G1 X82.781 Y36.511 E0.46286
G1 X83.653 Y36.5 E0.49187
G1 X96.351 Y36.5 E0.91421
G1 X97.166 Y36.51 E0.94132
G1 X97.519 Y36.52 E0.95306
G1 X97.716 Y36.529 E0.95962
G1 X98.885 Y36.646 E0.9987
G1 X99.438 Y36.731 E1.0173
G1 X99.789 Y36.79 E1.02914
G1 X100.992 Y37.016 E1.06985
G1 X101.083 Y37.03 E1.07292
G1 X101.419 Y37.096 E1.08431
G1 X103.971 Y37.527 E1.17039
G1 X106.441 Y37.871 E1.25333
G1 X108.918 Y38.147 E1.33623
G1 X111.447 Y38.355 E1.42063
G1 X113.977 Y38.492 E1.5049
G1 X116.463 Y38.557 E1.58761
G1 X118.988 Y38.55 E1.67159
G1 X121.509 Y38.473 E1.75548
G1 X124.03 Y38.324 E1.83948
G1 X126.514 Y38.106 E1.92241
G1 X129.052 Y37.811 E2.00739
G1 X131.513 Y37.454 E2.0901
G1 X133.813 Y37.059 E2.16772
G1 X134.243 Y36.979 E2.18227
G1 X135.507 Y36.736 E2.22508
G1 X136.632 Y36.579 E2.26286
G1 X136.908 Y36.555 E2.27208
G1 X137.332 Y36.526 E2.28621
G1 X137.781 Y36.511 E2.30115
G1 X138.653 Y36.5 E2.33016
G1 X151.5 Y36.501 E2.75745
G1 X152.165 Y36.51 E2.77957
G1 X152.515 Y36.52 E2.79122
G1 X152.713 Y36.529 E2.79781
G1 X153.874 Y36.644 E2.83661
G1 X154.313 Y36.711 E2.85138
G1 X155.465 Y36.95 E2.89051
G1 X155.76 Y37.028 E2.90066
G1 X156.955 Y37.419 E2.94248
G1 X157.226 Y37.525 E2.95216
G1 X158.21 Y37.966 E2.98803
G1 X158.483 Y38.105 E2.99822
G1 X159.417 Y38.64 E3.03402
G1 X159.661 Y38.796 E3.04365
G1 X160.603 Y39.471 E3.08219
G1 X160.847 Y39.666 E3.09258
G1 X161.602 Y40.328 E3.12598
G1 X161.782 Y40.501 E3.13428
G1 X162.392 Y41.136 E3.16357
G1 X162.54 Y41.303 E3.17099
G1 X163.13 Y42.028 E3.20208
G1 X163.311 Y42.271 E3.21216
G1 X163.921 Y43.183 E3.24865
G1 X164.071 Y43.433 E3.25835
G1 X164.599 Y44.424 E3.29569
G1 X164.726 Y44.695 E3.30565
G1 X165.142 Y45.711 E3.34216
G1 X165.243 Y45.998 E3.35228
G1 X165.489 Y46.793 E3.37996
G1 X165.528 Y46.938 E3.38496
G1 X165.712 Y47.738 E3.41226
G1 X165.767 Y48.027 E3.42204
G1 X165.922 Y49.154 E3.45988
G1 X165.95 Y49.484 E3.4709
G1 X165.988 Y50.259 E3.4967
G1 X166 Y51.193 E3.52777
G1 X166 Y183.851 E7.93999
G1 X165.99 Y184.666 E7.9671
G1 X165.982 Y184.97 E7.97722
G1 X165.974 Y185.164 E7.98368
G1 X165.856 Y186.38 E8.02431
G1 X165.788 Y186.823 E8.03922
G1 X165.547 Y187.975 E8.07836
G1 X165.469 Y188.269 E8.08848
G1 X165.096 Y189.417 E8.12863
G1 X165.043 Y189.554 E8.13351
G1 X164.669 Y190.41 E8.16458
G1 X164.443 Y190.873 E8.18172
G1 X163.78 Y192.045 E8.2265
G1 X163.661 Y192.228 E8.23376
G1 X163.025 Y193.107 E8.26985
G1 X162.82 Y193.363 E8.28076
G1 X162.132 Y194.143 E8.31535
G1 X161.942 Y194.339 E8.32443
G1 X161.128 Y195.098 E8.36145
G1 X160.894 Y195.295 E8.37162
G1 X160.018 Y195.961 E8.40822
G1 X159.762 Y196.136 E8.41853
G1 X158.892 Y196.673 E8.45254
G1 X158.71 Y196.774 E8.45946
G1 X157.66 Y197.286 E8.49832
G1 X157.23 Y197.468 E8.51385
G1 X155.97 Y197.913 E8.55829
G1 X155.736 Y197.98 E8.56639
G1 X154.809 Y198.203 E8.5981
G1 X154.516 Y198.26 E8.60803
G1 X153.368 Y198.421 E8.64658
G1 X153.092 Y198.445 E8.6558
G1 X152.668 Y198.474 E8.66993
G1 X152.219 Y198.489 E8.68487
G1 X151.347 Y198.5 E8.71388
G1 X83.666 Y198.5 E10.96496
G1 X82.841 Y198.49 E10.9924
G1 X82.493 Y198.48 E11.00398
G1 X82.293 Y198.471 E11.01064
G1 X81.131 Y198.357 E11.04947
G1 X80.691 Y198.29 E11.06428
G1 X79.535 Y198.05 E11.10354
G1 X79.24 Y197.972 E11.11369
G1 X78.045 Y197.581 E11.15551
G1 X77.774 Y197.475 E11.16519
G1 X76.79 Y197.034 E11.20106
G1 X76.517 Y196.895 E11.21124
G1 X75.583 Y196.36 E11.24704
G1 X75.339 Y196.204 E11.25668
G1 X74.388 Y195.522 E11.2956
G1 X74.142 Y195.325 E11.30608
G1 X73.369 Y194.644 E11.34035
G1 X73.184 Y194.465 E11.34891
G1 X72.595 Y193.849 E11.37726
G1 X72.449 Y193.684 E11.38458
G1 X71.86 Y192.959 E11.41565
G1 X71.683 Y192.721 E11.42552
G1 X71.068 Y191.8 E11.46235
G1 X70.918 Y191.549 E11.47208
G1 X70.399 Y190.572 E11.50887
G1 X70.273 Y190.303 E11.51875
G1 X69.85 Y189.266 E11.556
G1 X69.749 Y188.977 E11.56618
G1 X69.509 Y188.2 E11.59323
G1 X69.469 Y188.051 E11.59836
G1 X69.287 Y187.256 E11.62549
G1 X69.232 Y186.967 E11.63527
G1 X69.076 Y185.824 E11.67364
G1 X69.049 Y185.5 E11.68446
G1 X69.012 Y184.732 E11.71003
G1 X69 Y183.76 E11.74236
G1 X69 Y51.153 E16.15289
G1 X69.01 Y50.331 E16.18023
G1 X69.02 Y49.991 E16.19154
G1 X69.028 Y49.81 E16.19757
G1 X69.086 Y49.07 E16.22226
G1 X69.11 Y48.856 E16.22942
G1 X69.188 Y48.289 E16.24846
G1 X69.226 Y48.059 E16.25621
G1 X69.488 Y46.882 E16.29631
G1 X69.571 Y46.586 E16.30654
G1 X69.914 Y45.559 E16.34255
G1 X70.024 Y45.277 E16.35262
G1 X70.464 Y44.294 E16.38844
G1 X70.596 Y44.034 E16.39814
G1 X70.752 Y43.763 E16.40854
G0 F1350 X71.149 Y43.069
G0 F7500 X71.485 Y43.286
G1 F1500 X71.643 Y43.04 E16.41826
G1 X72.272 Y42.162 E16.45419
G1 X72.476 Y41.906 E16.46507
G1 X73.174 Y41.115 E16.50016
G1 X73.364 Y40.92 E16.50922
G1 X73.98 Y40.336 E16.53745
G1 X74.131 Y40.204 E16.54412
G1 X74.8 Y39.665 E16.57269
G1 X75.031 Y39.494 E16.58225
G1 X75.869 Y38.934 E16.61577
G1 X76.123 Y38.781 E16.62564
G1 X77.066 Y38.276 E16.66122
G1 X77.504 Y38.079 E16.67719
G1 X77.935 Y37.897 E16.69275
G1 X79.13 Y37.475 E16.7349
G1 X79.363 Y37.408 E16.74296
G1 X80.268 Y37.19 E16.77393
G1 X80.561 Y37.133 E16.78385
G1 X81.667 Y36.978 E16.821
G1 X81.943 Y36.954 E16.83021
G1 X82.354 Y36.926 E16.84392
G1 X82.787 Y36.911 E16.85833
G1 X83.653 Y36.9 E16.88713
G1 X96.351 Y36.9 E17.30947
G1 X97.16 Y36.91 E17.33638
G1 X97.501 Y36.92 E17.34772
G1 X97.698 Y36.929 E17.35428
G1 X98.824 Y37.041 E17.39192
G1 X99.377 Y37.126 E17.41053
G1 X99.716 Y37.184 E17.42197
G1 X100.826 Y37.392 E17.45953
G1 X101.006 Y37.422 E17.4656
G1 X101.391 Y37.497 E17.47864
G1 X103.881 Y37.918 E17.56264
G1 X106.378 Y38.266 E17.64649
G1 X108.912 Y38.548 E17.73129
G1 X111.428 Y38.756 E17.81526
G1 X113.944 Y38.892 E17.89906
G1 X116.454 Y38.957 E17.98258
G1 X119.001 Y38.95 E18.06729
G1 X121.546 Y38.872 E18.15198
G1 X124.017 Y38.726 E18.23431
G1 X126.598 Y38.5 E18.32048
G1 X129.08 Y38.211 E18.40359
G1 X131.566 Y37.851 E18.48713
G1 X133.861 Y37.456 E18.56459
G1 X134.348 Y37.367 E18.58105
G1 X135.583 Y37.129 E18.62289
G1 X136.667 Y36.978 E18.65929
G1 X136.943 Y36.954 E18.6685
G1 X137.354 Y36.926 E18.6822
G1 X137.787 Y36.911 E18.69662
G1 X138.653 Y36.9 E18.72542
G1 X151.494 Y36.901 E19.15251
G1 X152.159 Y36.91 E19.17463
G1 X152.497 Y36.92 E19.18588
G1 X152.695 Y36.929 E19.19247
G1 X153.813 Y37.039 E19.22984
G1 X154.252 Y37.106 E19.24461
G1 X155.363 Y37.337 E19.28235
G1 X155.658 Y37.415 E19.2925
G1 X156.809 Y37.791 E19.33277
G1 X157.08 Y37.897 E19.34245
G1 X158.029 Y38.323 E19.37705
G1 X158.302 Y38.462 E19.38724
G1 X159.202 Y38.977 E19.42173
G1 X159.446 Y39.133 E19.43136
G1 X160.354 Y39.783 E19.4685
G1 X160.598 Y39.978 E19.47889
G1 X161.325 Y40.617 E19.51108
G1 X161.505 Y40.79 E19.51939
G1 X162.093 Y41.402 E19.54761
G1 X162.241 Y41.569 E19.55503
G1 X162.809 Y42.267 E19.58497
G1 X162.99 Y42.51 E19.59504
G1 X163.578 Y43.388 E19.63019
G1 X163.728 Y43.638 E19.63989
G1 X164.237 Y44.594 E19.67591
G1 X164.364 Y44.865 E19.68586
G1 X164.765 Y45.844 E19.72105
G1 X164.866 Y46.131 E19.73117
G1 X165.103 Y46.897 E19.75784
G1 X165.142 Y47.042 E19.76283
G1 X165.319 Y47.813 E19.78914
G1 X165.374 Y48.102 E19.79893
G1 X165.523 Y49.188 E19.83539
G1 X165.551 Y49.518 E19.8464
G1 X165.588 Y50.264 E19.87125
G1 X165.6 Y51.193 E19.90215
G1 X165.6 Y183.851 E24.31437
G1 X165.59 Y184.66 E24.34128
G1 X165.582 Y184.954 E24.35106
G1 X165.574 Y185.148 E24.35752
G1 X165.46 Y186.319 E24.39665
G1 X165.392 Y186.762 E24.41156
G1 X165.161 Y187.872 E24.44927
G1 X165.083 Y188.166 E24.45938
G1 X164.723 Y189.273 E24.4981
G1 X164.67 Y189.41 E24.50299
G1 X164.31 Y190.235 E24.53293
G1 X164.084 Y190.698 E24.55006
G1 X163.444 Y191.827 E24.59323
G1 X163.325 Y192.01 E24.60049
G1 X162.713 Y192.857 E24.63524
G1 X162.508 Y193.113 E24.64615
G1 X161.845 Y193.865 E24.67949
G1 X161.655 Y194.061 E24.68857
G1 X160.871 Y194.792 E24.72423
G1 X160.637 Y194.989 E24.7344
G1 X159.792 Y195.631 E24.7697
G1 X159.536 Y195.806 E24.78001
G1 X158.697 Y196.323 E24.81279
G1 X158.515 Y196.424 E24.81971
G1 X157.504 Y196.918 E24.85714
G1 X157.074 Y197.1 E24.87267
G1 X155.86 Y197.529 E24.91549
G1 X155.626 Y197.596 E24.92359
G1 X154.732 Y197.81 E24.95416
G1 X154.439 Y197.867 E24.96409
G1 X153.333 Y198.022 E25.00123
G1 X153.057 Y198.046 E25.01045
G1 X152.646 Y198.074 E25.02415
G1 X152.213 Y198.089 E25.03856
G1 X151.347 Y198.1 E25.06737
G1 X83.666 Y198.1 E27.31845
G1 X82.847 Y198.09 E27.34569
G1 X82.51 Y198.08 E27.3569
G1 X82.31 Y198.071 E27.36356
G1 X81.191 Y197.961 E27.40096
G1 X80.751 Y197.894 E27.41576
G1 X79.637 Y197.663 E27.4536
G1 X79.342 Y197.585 E27.46375
G1 X78.191 Y197.209 E27.50402
G1 X77.92 Y197.103 E27.5137
G1 X76.971 Y196.677 E27.5483
G1 X76.698 Y196.538 E27.55849
G1 X75.798 Y196.023 E27.59298
G1 X75.554 Y195.867 E27.60261
G1 X74.638 Y195.21 E27.6401
G1 X74.392 Y195.013 E27.65058
G1 X73.647 Y194.357 E27.6836
G1 X73.462 Y194.178 E27.69216
G1 X72.895 Y193.584 E27.71947
G1 X72.749 Y193.419 E27.7268
G1 X72.181 Y192.721 E27.75673
G1 X72.004 Y192.483 E27.7666
G1 X71.411 Y191.595 E27.80211
G1 X71.261 Y191.344 E27.81184
G1 X70.761 Y190.402 E27.84731
G1 X70.635 Y190.133 E27.85719
G1 X70.227 Y189.134 E27.89308
G1 X70.126 Y188.845 E27.90326
G1 X69.895 Y188.096 E27.92933
G1 X69.855 Y187.947 E27.93446
G1 X69.68 Y187.181 E27.9606
G1 X69.625 Y186.892 E27.97038
G1 X69.475 Y185.79 E28.00737
G1 X69.448 Y185.466 E28.01819
G1 X69.412 Y184.727 E28.0428
G1 X69.4 Y183.76 E28.07496
G1 X69.4 Y51.153 E32.48549
G1 X69.41 Y50.336 E32.51266
G1 X69.419 Y50.009 E32.52354
G1 X69.427 Y49.828 E32.52957
G1 X69.483 Y49.115 E32.55336
G1 X69.507 Y48.901 E32.56052
G1 X69.583 Y48.354 E32.57889
G1 X69.621 Y48.124 E32.58664
G1 X69.873 Y46.99 E32.62528
G1 X69.956 Y46.694 E32.6355
G1 X70.287 Y45.704 E32.67022
G1 X70.397 Y45.422 E32.68029
G1 X70.82 Y44.475 E32.71479
G1 X70.952 Y44.215 E32.72448
G1 X71.087 Y43.979 E32.73353
G0 F1350 X71.485 Y43.286
G0 F7500 X71.822 Y43.502
G1 F1500 X71.98 Y43.256 E32.74325
G1 X72.585 Y42.411 E32.77782
G1 X72.789 Y42.155 E32.7887
G1 X73.46 Y41.394 E32.82245
G1 X73.65 Y41.199 E32.8315
G1 X74.243 Y40.638 E32.85865
G1 X74.394 Y40.506 E32.86533
G1 X75.038 Y39.987 E32.89284
G1 X75.269 Y39.816 E32.90239
G1 X76.075 Y39.277 E32.93464
G1 X76.329 Y39.124 E32.94451
G1 X77.237 Y38.638 E32.97876
G1 X77.66 Y38.447 E32.9942
G1 X78.091 Y38.265 E33.00976
G1 X79.24 Y37.859 E33.05029
G1 X79.473 Y37.792 E33.05835
G1 X80.344 Y37.583 E33.08814
G1 X80.637 Y37.526 E33.09807
G1 X81.701 Y37.376 E33.13381
G1 X81.977 Y37.352 E33.14303
G1 X82.376 Y37.325 E33.15633
G1 X82.792 Y37.311 E33.17017
G1 X83.653 Y37.3 E33.19881
G1 X96.351 Y37.3 E33.62115
G1 X97.155 Y37.31 E33.64789
G1 X97.483 Y37.32 E33.65881
G1 X97.68 Y37.329 E33.66536
G1 X98.764 Y37.436 E33.70159
G1 X99.317 Y37.521 E33.7202
G1 X99.642 Y37.577 E33.73117
G1 X100.845 Y37.803 E33.77188
G1 X100.93 Y37.815 E33.77474
G1 X101.289 Y37.885 E33.7869
G1 X103.831 Y38.314 E33.87265
G1 X106.354 Y38.667 E33.95738
G1 X108.833 Y38.943 E34.04034
G1 X111.407 Y39.155 E34.12624
G1 X113.914 Y39.29 E34.20975
G1 X116.48 Y39.357 E34.29512
G1 X119.013 Y39.35 E34.37937
G1 X121.546 Y39.272 E34.46366
G1 X124.077 Y39.123 E34.54798
G1 X126.607 Y38.901 E34.63246
G1 X129.147 Y38.606 E34.7175
G1 X131.656 Y38.242 E34.80183
G1 X133.924 Y37.852 E34.87837
G1 X134.421 Y37.76 E34.89518
G1 X135.658 Y37.522 E34.93708
G1 X136.701 Y37.376 E34.97211
G1 X136.977 Y37.352 E34.98132
G1 X137.376 Y37.325 E34.99462
G1 X137.792 Y37.311 E35.00846
G1 X138.653 Y37.3 E35.0371
G1 X151.489 Y37.301 E35.46403
G1 X152.154 Y37.31 E35.48615
G1 X152.479 Y37.32 E35.49697
G1 X152.677 Y37.329 E35.50356
G1 X153.753 Y37.435 E35.53952
G1 X154.192 Y37.502 E35.55429
G1 X155.26 Y37.724 E35.59057
G1 X155.555 Y37.802 E35.60072
G1 X156.664 Y38.164 E35.63952
G1 X156.935 Y38.27 E35.6492
G1 X157.847 Y38.679 E35.68244
G1 X158.12 Y38.818 E35.69263
G1 X158.986 Y39.314 E35.72583
G1 X159.23 Y39.47 E35.73546
G1 X160.104 Y40.096 E35.77121
G1 X160.348 Y40.291 E35.7816
G1 X161.048 Y40.905 E35.81257
G1 X161.228 Y41.078 E35.82088
G1 X161.794 Y41.667 E35.84805
G1 X161.942 Y41.834 E35.85547
G1 X162.488 Y42.506 E35.88427
G1 X162.669 Y42.749 E35.89434
G1 X163.235 Y43.594 E35.92817
G1 X163.385 Y43.844 E35.93787
G1 X163.875 Y44.764 E35.97254
G1 X164.002 Y45.035 E35.98249
G1 X164.388 Y45.977 E36.01635
G1 X164.489 Y46.264 E36.02647
G1 X164.717 Y47.001 E36.05213
G1 X164.756 Y47.146 E36.05712
G1 X164.926 Y47.888 E36.08244
G1 X164.981 Y48.177 E36.09223
G1 X165.124 Y49.222 E36.12731
G1 X165.152 Y49.552 E36.13832
G1 X165.188 Y50.27 E36.16223
G1 X165.2 Y51.193 E36.19293
G1 X165.2 Y183.851 E40.60516
G1 X165.19 Y184.655 E40.6319
G1 X165.182 Y184.937 E40.64128
G1 X165.174 Y185.131 E40.64774
G1 X165.065 Y186.259 E40.68543
G1 X164.997 Y186.702 E40.70034
G1 X164.774 Y187.77 E40.73663
G1 X164.696 Y188.064 E40.74674
G1 X164.35 Y189.128 E40.78396
G1 X164.297 Y189.265 E40.78884
G1 X163.95 Y190.059 E40.81766
G1 X163.724 Y190.522 E40.8348
G1 X163.109 Y191.609 E40.87634
G1 X162.99 Y191.792 E40.8836
G1 X162.401 Y192.607 E40.91704
G1 X162.196 Y192.863 E40.92795
G1 X161.558 Y193.587 E40.96005
G1 X161.368 Y193.783 E40.96913
G1 X160.613 Y194.486 E41.00344
G1 X160.379 Y194.683 E41.01361
G1 X159.566 Y195.301 E41.04758
G1 X159.31 Y195.476 E41.05789
G1 X158.503 Y195.974 E41.08943
G1 X158.321 Y196.075 E41.09636
G1 X157.348 Y196.549 E41.13235
G1 X156.918 Y196.731 E41.14788
G1 X155.75 Y197.144 E41.18909
G1 X155.516 Y197.211 E41.19718
G1 X154.656 Y197.417 E41.2266
G1 X154.363 Y197.474 E41.23653
G1 X153.299 Y197.624 E41.27226
G1 X153.023 Y197.648 E41.28148
G1 X152.624 Y197.675 E41.29478
G1 X152.208 Y197.689 E41.30862
G1 X151.347 Y197.7 E41.33726
G1 X83.666 Y197.7 E43.58834
G1 X82.852 Y197.69 E43.61542
G1 X82.528 Y197.681 E43.6262
G1 X82.328 Y197.672 E43.63286
G1 X81.252 Y197.566 E43.66882
G1 X80.812 Y197.499 E43.68362
G1 X79.74 Y197.276 E43.72004
G1 X79.445 Y197.198 E43.73019
G1 X78.336 Y196.836 E43.76899
G1 X78.065 Y196.73 E43.77867
G1 X77.153 Y196.321 E43.81191
G1 X76.88 Y196.182 E43.8221
G1 X76.014 Y195.686 E43.85529
G1 X75.77 Y195.53 E43.86493
G1 X74.888 Y194.898 E43.90102
G1 X74.642 Y194.701 E43.9115
G1 X73.925 Y194.069 E43.94329
G1 X73.74 Y193.89 E43.95185
G1 X73.194 Y193.319 E43.97813
G1 X73.048 Y193.154 E43.98545
G1 X72.502 Y192.482 E44.01425
G1 X72.325 Y192.244 E44.02412
G1 X71.754 Y191.389 E44.05831
G1 X71.604 Y191.138 E44.06804
G1 X71.123 Y190.233 E44.10213
G1 X70.997 Y189.964 E44.11201
G1 X70.605 Y189.002 E44.14656
G1 X70.504 Y188.713 E44.15674
G1 X70.282 Y187.993 E44.1818
G1 X70.242 Y187.844 E44.18693
G1 X70.073 Y187.106 E44.21211
G1 X70.018 Y186.817 E44.2219
G1 X69.873 Y185.757 E44.25748
G1 X69.846 Y185.433 E44.26829
G1 X69.812 Y184.722 E44.29197
G1 X69.8 Y183.76 E44.32397
G1 X69.8 Y51.153 E48.73449
G1 X69.81 Y50.341 E48.7615
G1 X69.819 Y50.027 E48.77195
